X:129
T:Myers Cave Reel
R:reel
C:Bruce Osborne  --  Oct. 1995
Z:abc by bosborne@kos.net
M:2/4
L:1/8
K:D
A,|DD/E/ F/D/F/G/|A/B/A/F/ Ad/e/|f/a/f/e/ d/B/A/d/|A/F/D/F/ EF/E/|\
DD/E/ F/D/F/G/|A/B/A/F/ Ad/e/|f/a/f/e/ d/B/A/d/|A/F/E/F/ D:|
|:d/e/|f/a/f/e/ d/B/A/d/|A/F/A/B/ AF/G/|A/F/A/d/ f/e/d/B/|A/F/D/F/ Ed/e/|\
f/a/f/e/ d/B/A/d/|A/F/A/B/ AF/G/|A/F/A/d/ f/e/d/B/|A/F/E/F/ D:|
